www/assets/icons/format_align_right.svg

<svg xmlns="http://www.w3.org/2000/svg" width="24" height="24" viewBox="0 0 24 24" fill='currentColor'><path d="M3 21h18v-2H3zm6-4h12v-2H9zm-6-4h18v-2H3zm6-4h12V7H9zM3 3v2h18V3z"/></svg>

<svg width="24" height="24" viewBox="0 0 24 24" xmlns="http://www.w3.org/2000/svg" fill='currentColor'><path d="M3 21H21V19H3V21ZM9 17H21V15H9V17ZM3 13H21V11H3V13ZM9 9H21V7H9V9ZM3 3V5H21V3H3Z"/></svg>
